;FLAVOR:Marlin
;TIME:1239
;Filament used: 0.771116m
;Layer height: 0.2
;MINX:84.015
;MINY:84.015
;MINZ:0.2
;MAXX:135.985
;MAXY:135.985
;MAXZ:5
;Generated with Cura_SteamEngine 5.0.0
M140 S60
M105
M190 S60
M104 S200
M105
M109 S200
M82 ;absolute extrusion mode
; Ender 3 Custom Start G-code
G92 E0 ; Reset Extruder
G28 ; Home all axes
G1 Z2.0 F3000 ; Move Z Axis up little to prevent scratching of Heat Bed
G1 X0.1 Y20 Z0.3 F5000.0 ; Move to start position
G1 X0.1 Y200.0 Z0.3 F1500.0 E15 ; Draw the first line
G1 X0.4 Y200.0 Z0.3 F5000.0 ; Move to side a little
G1 X0.4 Y20 Z0.3 F1500.0 E30 ; Draw the second line
G92 E0 ; Reset Extruder
G1 Z2.0 F3000 ; Move Z Axis up little to prevent scratching of Heat Bed
G1 X5 Y20 Z0.3 F5000.0 ; Move over to prevent blob squish
G92 E0
G92 E0
G1 F1500 E-6.5
;LAYER_COUNT:25
;LAYER:0
M107
G0 F6000 X90.637 Y92.855 Z0.2
G0 X87.795 Y96.719
;TYPE:SKIRT
G1 F1500 E0
G1 F1200 X88.133 Y96.076 E0.02416
G1 X88.605 Y95.265 E0.05537
G1 X89.143 Y94.497 E0.08656
G1 X89.98 Y93.529 E0.12912
G1 X90.637 Y92.855 E0.16043
G1 X93.032 Y90.462 E0.27303
G1 X93.511 Y89.996 E0.29526
G1 X94.21 Y89.371 E0.32645
G1 X94.96 Y88.808 E0.35764
G1 X96.037 Y88.157 E0.3995
G1 X96.894 Y87.705 E0.43172
G1 X99.846 Y86.202 E0.5419
G1 X100.488 Y85.885 E0.56571
G1 X101.346 Y85.506 E0.59691
G1 X102.233 Y85.201 E0.62811
G1 X103.467 Y84.912 E0.67026
G1 X104.465 Y84.739 E0.70395
G1 X107.74 Y84.222 E0.81422
G1 X108.418 Y84.124 E0.83701
G1 X109.351 Y84.03 E0.8682
G1 X110.289 Y84.015 E0.8994
G1 X111.552 Y84.122 E0.94156
G1 X112.492 Y84.258 E0.97315
G1 X115.801 Y84.782 E1.08458
G1 X116.496 Y84.902 E1.10804
G1 X117.412 Y85.101 E1.13921
G1 X118.308 Y85.377 E1.1704
G1 X119.465 Y85.865 E1.21216
G1 X120.329 Y86.29 E1.24419
G1 X123.281 Y87.795 E1.35439
G1 X123.924 Y88.133 E1.37855
G1 X124.735 Y88.605 E1.40976
G1 X125.503 Y89.143 E1.44095
G1 X126.471 Y89.98 E1.48351
G1 X127.145 Y90.637 E1.51482
G1 X129.538 Y93.032 E1.62743
G1 X130.004 Y93.511 E1.64965
G1 X130.629 Y94.21 E1.68084
G1 X131.192 Y94.96 E1.71203
G1 X131.843 Y96.037 E1.75389
G1 X132.295 Y96.894 E1.78611
G1 X133.798 Y99.846 E1.89629
G1 X134.115 Y100.488 E1.92011
G1 X134.494 Y101.346 E1.9513
G1 X134.799 Y102.233 E1.9825
G1 X135.088 Y103.467 E2.02465
G1 X135.261 Y104.465 E2.05834
G1 X135.778 Y107.74 E2.16862
G1 X135.876 Y108.418 E2.1914
G1 X135.97 Y109.351 E2.22259
G1 X135.985 Y110.289 E2.25379
G1 X135.878 Y111.552 E2.29595
G1 X135.742 Y112.492 E2.32754
G1 X135.218 Y115.801 E2.43897
G1 X135.098 Y116.496 E2.46243
G1 X134.899 Y117.412 E2.49361
G1 X134.623 Y118.308 E2.52479
G1 X134.135 Y119.465 E2.56655
G1 X133.71 Y120.329 E2.59858
G1 X132.205 Y123.281 E2.70879
G1 X131.867 Y123.924 E2.73295
G1 X131.395 Y124.735 E2.76416
G1 X130.857 Y125.503 E2.79534
G1 X130.02 Y126.471 E2.83791
G1 X129.363 Y127.145 E2.86921
G1 X126.968 Y129.538 E2.98182
G1 X126.489 Y130.004 E3.00405
G1 X125.79 Y130.629 E3.03523
G1 X125.04 Y131.192 E3.06642
G1 X123.963 Y131.843 E3.10828
G1 X123.106 Y132.295 E3.14051
G1 X120.154 Y133.798 E3.25068
G1 X119.512 Y134.115 E3.2745
G1 X118.654 Y134.494 E3.3057
G1 X117.767 Y134.799 E3.33689
G1 X116.533 Y135.088 E3.37905
G1 X115.536 Y135.261 E3.4127
G1 X112.262 Y135.778 E3.52295
G1 X111.574 Y135.877 E3.54606
G1 X110.641 Y135.971 E3.57725
G1 X109.703 Y135.985 E3.60845
G1 X108.446 Y135.878 E3.65041
G1 X107.508 Y135.742 E3.68194
G1 X104.199 Y135.218 E3.79337
G1 X103.504 Y135.098 E3.81682
G1 X102.588 Y134.899 E3.848
G1 X101.692 Y134.623 E3.87918
G1 X100.535 Y134.135 E3.92095
G1 X99.671 Y133.71 E3.95297
G1 X96.719 Y132.205 E4.06318
G1 X96.076 Y131.867 E4.08734
G1 X95.265 Y131.395 E4.11855
G1 X94.497 Y130.857 E4.14974
G1 X93.529 Y130.02 E4.1923
G1 X92.855 Y129.363 E4.22361
G1 X90.454 Y126.96 E4.33659
G1 X89.987 Y126.479 E4.35889
G1 X89.363 Y125.779 E4.39008
G1 X88.801 Y125.029 E4.42125
G1 X88.156 Y123.961 E4.46275
G1 X87.705 Y123.106 E4.4949
G1 X86.202 Y120.154 E4.60508
G1 X85.885 Y119.512 E4.62889
G1 X85.506 Y118.654 E4.66009
G1 X85.201 Y117.767 E4.69129
G1 X84.912 Y116.533 E4.73344
G1 X84.739 Y115.535 E4.76713
G1 X84.222 Y112.26 E4.8774
G1 X84.124 Y111.582 E4.90019
G1 X84.03 Y110.649 E4.93138
G1 X84.015 Y109.711 E4.96258
G1 X84.122 Y108.448 E5.00474
G1 X84.258 Y107.508 E5.03633
G1 X84.782 Y104.199 E5.14776
G1 X84.902 Y103.504 E5.17121
G1 X85.101 Y102.588 E5.20239
G1 X85.377 Y101.692 E5.23357
G1 X85.865 Y100.535 E5.27534
G1 X86.29 Y99.671 E5.30736
G1 X87.795 Y96.719 E5.41757
G1 F1500 E-1.08243
G0 F6000 X85.571 Y104.336
G1 F1500 E5.41757
G1 F1200 X85.691 Y103.641 E5.44103
G1 X85.884 Y102.758 E5.47109
G1 X86.154 Y101.897 E5.5011
G1 X86.583 Y100.887 E5.5376
G1 X87.002 Y100.034 E5.56921
G1 X88.503 Y97.091 E5.67909
G1 X88.841 Y96.448 E5.70325
G1 X89.297 Y95.668 E5.7333
G1 X89.819 Y94.931 E5.76334
G1 X90.554 Y94.087 E5.80056
G1 X91.203 Y93.421 E5.83149
G1 X93.589 Y91.035 E5.94372
G1 X94.068 Y90.569 E5.96595
G1 X94.743 Y89.969 E5.99599
G1 X95.468 Y89.43 E6.02604
G1 X96.411 Y88.864 E6.06262
G1 X97.257 Y88.418 E6.09443
G1 X100.2 Y86.919 E6.20428
G1 X100.842 Y86.602 E6.22809
G1 X101.669 Y86.239 E6.25813
G1 X102.524 Y85.95 E6.28815
G1 X103.604 Y85.7 E6.32502
G1 X104.59 Y85.529 E6.3583
G1 X107.855 Y85.014 E6.46824
G1 X108.533 Y84.916 E6.49102
G1 X109.431 Y84.826 E6.52104
G1 X110.335 Y84.817 E6.55111
G1 X111.438 Y84.914 E6.58794
G1 X112.367 Y85.048 E6.61916
G1 X115.664 Y85.571 E6.73019
G1 X116.359 Y85.691 E6.75364
G1 X117.242 Y85.884 E6.78371
G1 X118.103 Y86.154 E6.81372
G1 X119.113 Y86.583 E6.85022
G1 X119.966 Y87.002 E6.88182
G1 X122.909 Y88.503 E6.9917
G1 X123.552 Y88.841 E7.01587
G1 X124.332 Y89.297 E7.04592
G1 X125.069 Y89.819 E7.07595
G1 X125.913 Y90.554 E7.11318
G1 X126.579 Y91.203 E7.14411
G1 X128.965 Y93.589 E7.25634
G1 X129.431 Y94.068 E7.27857
G1 X130.031 Y94.743 E7.3086
G1 X130.57 Y95.468 E7.33865
G1 X131.136 Y96.411 E7.37523
G1 X131.582 Y97.257 E7.40704
G1 X133.081 Y100.2 E7.51689
G1 X133.398 Y100.842 E7.5407
G1 X133.761 Y101.669 E7.57074
G1 X134.05 Y102.524 E7.60076
G1 X134.3 Y103.604 E7.63763
G1 X134.471 Y104.59 E7.67092
G1 X134.986 Y107.855 E7.78085
G1 X135.084 Y108.533 E7.80364
G1 X135.174 Y109.431 E7.83366
G1 X135.183 Y110.335 E7.86372
G1 X135.086 Y111.438 E7.90055
G1 X134.952 Y112.367 E7.93177
G1 X134.429 Y115.664 E8.0428
G1 X134.309 Y116.359 E8.06626
G1 X134.116 Y117.242 E8.09632
G1 X133.846 Y118.103 E8.12633
G1 X133.417 Y119.113 E8.16283
G1 X132.998 Y119.966 E8.19444
G1 X131.497 Y122.909 E8.30432
G1 X131.159 Y123.552 E8.32848
G1 X130.703 Y124.332 E8.35853
G1 X130.181 Y125.069 E8.38857
G1 X129.446 Y125.913 E8.42579
G1 X128.797 Y126.579 E8.45672
G1 X126.411 Y128.965 E8.56895
G1 X125.932 Y129.431 E8.59118
G1 X125.257 Y130.031 E8.62122
G1 X124.532 Y130.57 E8.65126
G1 X123.589 Y131.136 E8.68784
G1 X122.743 Y131.582 E8.71965
G1 X119.8 Y133.081 E8.8295
G1 X119.158 Y133.398 E8.85332
G1 X118.331 Y133.761 E8.88336
G1 X117.476 Y134.05 E8.91338
G1 X116.396 Y134.3 E8.95025
G1 X115.411 Y134.471 E8.9835
G1 X112.148 Y134.986 E9.09337
G1 X111.46 Y135.085 E9.11649
G1 X110.561 Y135.174 E9.14653
G1 X109.658 Y135.183 E9.17657
G1 X108.559 Y135.086 E9.21326
G1 X107.633 Y134.952 E9.24438
G1 X104.336 Y134.429 E9.35541
G1 X103.641 Y134.309 E9.37887
G1 X102.758 Y134.116 E9.40893
G1 X101.897 Y133.846 E9.43895
G1 X100.887 Y133.417 E9.47544
G1 X100.034 Y132.998 E9.50705
G1 X97.091 Y131.497 E9.61693
G1 X96.448 Y131.159 E9.64109
G1 X95.668 Y130.703 E9.67114
G1 X94.931 Y130.181 E9.70118
G1 X94.087 Y129.446 E9.73841
G1 X93.421 Y128.797 E9.76934
G1 X91.028 Y126.403 E9.88192
G1 X90.561 Y125.922 E9.90422
G1 X89.961 Y125.247 E9.93426
G1 X89.423 Y124.521 E9.96431
G1 X88.863 Y123.587 E10.00053
G1 X88.418 Y122.743 E10.03227
G1 X86.919 Y119.8 E10.14212
G1 X86.602 Y119.158 E10.16593
G1 X86.239 Y118.331 E10.19597
G1 X85.95 Y117.476 E10.22599
G1 X85.7 Y116.396 E10.26286
G1 X85.529 Y115.41 E10.29614
G1 X85.014 Y112.145 E10.40608
G1 X84.916 Y111.467 E10.42886
G1 X84.826 Y110.569 E10.45888
G1 X84.817 Y109.665 E10.48895
G1 X84.914 Y108.562 E10.52578
G1 X85.048 Y107.633 E10.557
G1 X85.571 Y104.336 E10.66803
G1 F1500 E4.16803
G0 F6000 X84.416 Y109.688
G1 F1500 E10.66803
G1 F1200 X84.518 Y108.505 E10.70752
G1 X84.653 Y107.57 E10.73894
G1 X85.177 Y104.267 E10.85017
G1 X85.297 Y103.572 E10.87363
G1 X85.492 Y102.673 E10.90422
G1 X85.766 Y101.794 E10.93485
G1 X86.224 Y100.711 E10.97396
G1 X86.646 Y99.852 E11.00579
G1 X88.149 Y96.905 E11.11582
G1 X88.487 Y96.262 E11.13998
G1 X88.951 Y95.466 E11.17062
G1 X89.481 Y94.714 E11.20122
G1 X90.267 Y93.808 E11.24112
G1 X90.92 Y93.138 E11.27223
G1 X93.31 Y90.748 E11.38465
G1 X93.789 Y90.282 E11.40688
G1 X94.477 Y89.67 E11.43751
G1 X95.214 Y89.119 E11.46811
G1 X96.224 Y88.51 E11.50734
G1 X97.076 Y88.061 E11.53937
G1 X100.023 Y86.561 E11.64935
G1 X100.665 Y86.244 E11.67317
G1 X101.507 Y85.872 E11.70379
G1 X102.379 Y85.575 E11.73442
G1 X103.535 Y85.306 E11.7739
G1 X104.528 Y85.134 E11.80742
G1 X107.798 Y84.618 E11.91753
G1 X108.476 Y84.52 E11.94031
G1 X109.392 Y84.428 E11.97093
G1 X110.312 Y84.416 E12.00153
G1 X111.495 Y84.518 E12.04102
G1 X112.43 Y84.653 E12.07245
G1 X115.733 Y85.177 E12.18368
G1 X116.428 Y85.297 E12.20714
G1 X117.327 Y85.492 E12.23773
G1 X118.206 Y85.766 E12.26835
G1 X119.289 Y86.224 E12.30746
G1 X120.148 Y86.646 E12.3393
G1 X123.095 Y88.149 E12.44933
G1 X123.738 Y88.487 E12.47349
G1 X124.534 Y88.951 E12.50413
G1 X125.286 Y89.481 E12.53473
G1 X126.192 Y90.267 E12.57462
G1 X126.862 Y90.92 E12.60574
G1 X129.252 Y93.31 E12.71816
G1 X129.718 Y93.789 E12.74039
G1 X130.33 Y94.477 E12.77101
G1 X130.881 Y95.214 E12.80162
G1 X131.49 Y96.224 E12.84085
G1 X131.939 Y97.076 E12.87288
G1 X133.439 Y100.023 E12.98286
G1 X133.756 Y100.665 E13.00668
G1 X134.128 Y101.507 E13.03729
G1 X134.425 Y102.379 E13.06793
G1 X134.694 Y103.535 E13.10741
G1 X134.866 Y104.528 E13.14093
G1 X135.382 Y107.798 E13.25103
G1 X135.48 Y108.476 E13.27382
G1 X135.572 Y109.392 E13.30444
G1 X135.584 Y110.312 E13.33504
G1 X135.482 Y111.495 E13.37453
G1 X135.347 Y112.43 E13.40595
G1 X134.823 Y115.733 E13.51718
G1 X134.703 Y116.428 E13.54064
G1 X134.508 Y117.327 E13.57124
G1 X134.234 Y118.206 E13.60186
G1 X133.776 Y119.289 E13.64097
G1 X133.354 Y120.148 E13.6728
G1 X131.851 Y123.095 E13.78283
G1 X131.513 Y123.738 E13.80699
G1 X131.049 Y124.534 E13.83764
G1 X130.519 Y125.286 E13.86824
G1 X129.733 Y126.192 E13.90813
G1 X129.08 Y126.862 E13.93925
G1 X126.69 Y129.252 E14.05167
G1 X126.211 Y129.718 E14.07389
G1 X125.523 Y130.33 E14.10452
G1 X124.786 Y130.881 E14.13513
G1 X123.776 Y131.49 E14.17435
G1 X122.924 Y131.939 E14.20638
G1 X119.977 Y133.439 E14.31637
G1 X119.335 Y133.756 E14.34018
G1 X118.493 Y134.128 E14.3708
G1 X117.621 Y134.425 E14.40144
G1 X116.465 Y134.694 E14.44091
G1 X115.474 Y134.866 E14.47437
G1 X112.205 Y135.382 E14.58444
G1 X111.517 Y135.481 E14.60756
G1 X110.601 Y135.572 E14.63818
G1 X109.68 Y135.584 E14.66881
G1 X108.502 Y135.482 E14.70814
G1 X107.57 Y135.347 E14.73946
G1 X104.267 Y134.823 E14.85069
G1 X103.572 Y134.703 E14.87415
G1 X102.673 Y134.508 E14.90475
G1 X101.794 Y134.234 E14.93537
G1 X100.711 Y133.776 E14.97448
G1 X99.852 Y133.354 E15.00631
G1 X96.905 Y131.851 E15.11634
G1 X96.262 Y131.513 E15.1405
G1 X95.466 Y131.049 E15.17115
G1 X94.714 Y130.519 E15.20174
G1 X93.808 Y129.733 E15.24164
G1 X93.138 Y129.08 E15.27276
G1 X90.741 Y126.682 E15.38553
G1 X90.274 Y126.201 E15.40782
G1 X89.662 Y125.513 E15.43845
G1 X89.112 Y124.775 E15.46906
G1 X88.51 Y123.774 E15.50791
G1 X88.061 Y122.924 E15.53989
G1 X86.561 Y119.977 E15.64987
G1 X86.244 Y119.335 E15.67368
G1 X85.872 Y118.493 E15.7043
G1 X85.575 Y117.621 E15.73494
G1 X85.306 Y116.465 E15.77442
G1 X85.134 Y115.472 E15.80794
G1 X84.618 Y112.202 E15.91804
G1 X84.52 Y111.524 E15.94083
G1 X84.428 Y110.608 E15.97145
G1 X84.416 Y109.688 E16.00205
G1 F1500 E9.50205
;MESH:Keep In The Loop Symbol.stl
G0 F6000 X95.068 Y114.673
G0 X96.148 Y114.502
G0 X98.487 Y118.361
G0 X101.638 Y121.511
G0 X105.605 Y123.532
G0 X110 Y124.383
G1 F1500 E16.00205
G0 F6000 X110 Y124.797
;TYPE:WALL-OUTER
G1 F1200 X114.571 Y124.072 E16.15598
G1 X118.696 Y121.971 E16.30995
G1 X121.973 Y118.695 E16.46407
G1 X124.072 Y114.571 E16.61798
G1 X124.797 Y110.001 E16.77187
G1 X124.072 Y105.429 E16.92584
G1 X121.973 Y101.306 E17.07972
G1 X118.696 Y98.029 E17.23386
G1 X114.571 Y95.928 E17.38783
G1 X110 Y95.203 E17.54176
G1 X105.429 Y95.928 E17.69569
G1 X101.304 Y98.029 E17.84966
G1 X98.027 Y101.306 E18.0038
G1 X95.928 Y105.429 E18.15768
G1 X95.203 Y110.001 E18.31165
G1 X95.928 Y114.571 E18.46555
G1 X98.027 Y118.695 E18.61946
G1 X101.304 Y121.971 E18.77357
G1 X105.429 Y124.072 E18.92754
G1 X110 Y124.797 E19.08147
G0 F6000 X110 Y124.392
;TYPE:WALL-INNER
G1 F1200 X114.446 Y123.687 E19.2312
G1 X118.458 Y121.643 E19.38096
G1 X121.645 Y118.457 E19.53084
G1 X123.687 Y114.446 E19.68054
G1 X124.392 Y110.001 E19.83023
G1 X123.687 Y105.554 E19.97998
G1 X121.645 Y101.544 E20.12965
G1 X118.458 Y98.357 E20.27956
G1 X114.446 Y96.313 E20.42932
G1 X110 Y95.608 E20.57904
G1 X105.554 Y96.313 E20.72876
G1 X101.542 Y98.357 E20.87852
G1 X98.355 Y101.544 E21.02843
G1 X96.313 Y105.554 E21.1781
G1 X95.608 Y110.001 E21.32786
G1 X96.313 Y114.446 E21.47754
G1 X98.355 Y118.457 E21.62724
G1 X101.542 Y121.643 E21.77713
G1 X105.554 Y123.687 E21.92689
G1 X110 Y124.392 E22.07661
G0 F6000 X110 Y124.028
;TYPE:SKIN
G1 F1200 X114.332 Y123.339 E22.2225
G1 X118.242 Y121.348 E22.36844
G1 X121.352 Y118.24 E22.51468
G1 X123.339 Y114.332 E22.66049
G1 X124.027 Y110 E22.80638
G1 X123.339 Y105.668 E22.95227
G1 X121.352 Y101.761 E23.09806
G1 X118.242 Y98.652 E23.24432
G1 X114.332 Y96.661 E23.39026
G1 X109.999 Y95.974 E23.53617
G1 X105.668 Y96.661 E23.68202
G1 X101.757 Y98.652 E23.82799
G1 X98.648 Y101.761 E23.97423
G1 X96.661 Y105.668 E24.12002
G1 X95.973 Y110 E24.2659
G1 X96.661 Y114.332 E24.41179
G1 X98.648 Y118.24 E24.55761
G1 X101.757 Y121.348 E24.70382
G1 X105.668 Y123.339 E24.84979
G1 X110 Y124.028 E24.99568
G0 F6000 X109.959 Y124.284
G0 X105.605 Y123.532
G0 X101.815 Y121.669
G0 X102.025 Y121.258
G1 F1200 X98.734 Y117.967 E25.15048
G0 F6000 X98.324 Y118.175
G0 X97.738 Y117.025
G0 X98.149 Y116.816
G1 F1200 X103.178 Y121.845 E25.38703
G0 F6000 X102.968 Y122.257
G0 X104.12 Y122.843
G0 X104.33 Y122.432
G1 F1200 X97.564 Y115.666 E25.70528
G0 F6000 X97.152 Y115.874
G0 X96.567 Y114.723
G0 X96.978 Y114.515
G1 F1200 X105.482 Y123.018 E26.10526
G0 F6000 X106.258 Y123.228
G1 F1200 X96.769 Y113.74 E26.55157
G0 F6000 X96.662 Y113.067
G1 F1200 X106.93 Y123.335 E27.03455
G0 F6000 X107.603 Y123.443
G1 F1200 X96.556 Y112.395 E27.55419
G0 F6000 X96.449 Y111.722
G1 F1200 X108.276 Y123.549 E28.11049
G0 F6000 X108.948 Y123.656
G1 F1200 X96.342 Y111.05 E28.70344
G0 F6000 X96.235 Y110.377
G1 F1200 X109.621 Y123.763 E29.33308
G0 F6000 X110.213 Y123.789
G1 F1200 X96.209 Y109.786 E29.99176
G0 F6000 X96.286 Y109.297
G1 F1200 X110.701 Y123.712 E30.6698
G0 F6000 X111.189 Y123.634
G1 F1200 X96.364 Y108.809 E31.36712
G0 F6000 X96.442 Y108.321
G1 F1200 X111.677 Y123.557 E32.08375
G0 F6000 X112.165 Y123.479
G1 F1200 X96.519 Y107.833 E32.81969
G0 F6000 X96.597 Y107.345
G1 F1200 X112.653 Y123.401 E33.57492
G0 F6000 X113.141 Y123.323
G1 F1200 X96.674 Y106.857 E34.34945
G0 F6000 X96.752 Y106.369
G1 F1200 X113.629 Y123.245 E35.14327
G0 F6000 X114.117 Y123.168
G1 F1200 X96.829 Y105.88 E35.95644
G0 F6000 X96.986 Y105.471
G1 F1200 X114.527 Y123.012 E36.78152
G0 F6000 X114.902 Y122.821
G1 F1200 X97.176 Y105.095 E37.61529
G0 F6000 X97.367 Y104.721
G1 F1200 X115.277 Y122.631 E38.45773
G0 F6000 X115.652 Y122.44
G1 F1200 X97.557 Y104.345 E39.30886
G0 F6000 X97.748 Y103.97
G1 F1200 X116.027 Y122.249 E40.16865
G0 F6000 X116.401 Y122.058
G1 F1200 X97.938 Y103.595 E41.03709
G0 F6000 X98.129 Y103.22
G1 F1200 X116.776 Y121.867 E41.91419
G0 F6000 X117.151 Y121.676
G1 F1200 X98.32 Y102.845 E42.79994
G0 F6000 X98.51 Y102.47
G1 F1200 X117.526 Y121.486 E43.69439
G0 F6000 X117.901 Y121.295
G1 F1200 X98.701 Y102.095 E44.5975
G0 F6000 X98.931 Y101.759
G1 F1200 X118.238 Y121.067 E45.50567
G0 F6000 X118.521 Y120.784
G1 F1200 X99.214 Y101.476 E46.41383
G0 F6000 X99.496 Y101.194
G1 F1200 X118.804 Y120.501 E47.322
G0 F6000 X119.087 Y120.218
G1 F1200 X99.779 Y100.911 E48.23017
